assets/svgs/ports.svg

<?xml version="1.0" encoding="UTF-8" standalone="no"?>
<svg
   xmlns:dc="http://purl.org/dc/elements/1.1/"
   xmlns:cc="http://creativecommons.org/ns#"
   xmlns:rdf="http://www.w3.org/1999/02/22-rdf-syntax-ns#"
   xmlns:svg="http://www.w3.org/2000/svg"
   xmlns="http://www.w3.org/2000/svg"
   xmlns:sodipodi="http://sodipodi.sourceforge.net/DTD/sodipodi-0.dtd"
   xmlns:inkscape="http://www.inkscape.org/namespaces/inkscape"
   version="1.1"
   id="svg10"
   sodipodi:docname="ports.svg"
   width="264"
   height="70.000061"
   inkscape:version="0.92.5 (2060ec1f9f, 2020-04-08)">
  <metadata
     id="metadata16">
    <rdf:RDF>
      <cc:Work
         rdf:about="">
        <dc:format>image/svg+xml</dc:format>
        <dc:type
           rdf:resource="http://purl.org/dc/dcmitype/StillImage" />
      </cc:Work>
    </rdf:RDF>
  </metadata>
  <defs
     id="defs14" />
  <sodipodi:namedview
     pagecolor="#ffffff"
     bordercolor="#666666"
     borderopacity="1"
     objecttolerance="10"
     gridtolerance="10"
     guidetolerance="10"
     inkscape:pageopacity="0"
     inkscape:pageshadow="2"
     inkscape:window-width="640"
     inkscape:window-height="480"
     id="namedview12"
     showgrid="false"
     inkscape:zoom="2.36"
     inkscape:cx="50"
     inkscape:cy="20.00006"
     inkscape:window-x="72"
     inkscape:window-y="27"
     inkscape:window-maximized="0"
     inkscape:current-layer="svg10" />
  <g
     transform="scale(0.44,0.438465)"
     id="g8">
    <path
       d="m 84.453,80.481 c 8.799,-10.287 21.867,-16.812 36.465,-16.812 2.928,0 5.793,0.279 8.577,0.777 1.878,-5.133 2.901,-10.677 2.901,-16.464 C 132.396,21.483 110.907,0 84.408,0 57.903,0 36.42,21.483 36.42,47.985 c 0,5.793 1.032,11.343 2.913,16.479 2.808,-0.51 5.697,-0.795 8.655,-0.795 14.598,0.003 27.663,6.528 36.465,16.812 z m 45.042,-16.032 c -5.76,15.768 -19.554,27.657 -36.423,30.738 1.875,5.136 2.904,10.689 2.904,16.47 0,11.907 -4.344,22.791 -11.523,31.176 8.802,10.287 21.867,16.815 36.465,16.815 26.505,0 47.988,-21.486 47.988,-47.991 0,-23.574 -17.001,-43.161 -39.411,-47.208 z M 75.834,95.196 C 58.929,92.145 45.105,80.244 39.333,64.467 16.965,68.541 0,88.113 0,111.657 c 0,26.505 21.486,47.991 47.988,47.991 14.598,0 27.663,-6.528 36.465,-16.812 -7.176,-8.388 -11.52,-19.272 -11.52,-31.176 0,-5.784 1.026,-11.331 2.901,-16.464 z m 0,0 c 2.784,0.504 5.646,0.774 8.574,0.774 2.961,0 5.853,-0.273 8.664,-0.786 -1.983,-5.433 -4.932,-10.392 -8.619,-14.706 -3.69,4.314 -6.636,9.288 -8.619,14.718 z"
       id="path9"
       style="fill:#ffffff;fill-opacity:1"
       inkscape:connector-curvature="0" />
    <path
       d="m 267.966,59.187 c 0,9.423 -3.201,16.647 -9.6,21.672 -6.402,5.022 -15.468,7.533 -27.204,7.533 h -15.066 v 40.269 h -6.801 V 31.185 h 23.868 c 23.202,0 34.803,9.333 34.803,28.002 z m -51.87,23.337 h 13.401 c 10.977,0 18.912,-1.812 23.802,-5.436 4.887,-3.621 7.332,-9.501 7.332,-17.634 0,-7.512 -2.31,-13.077 -6.933,-16.701 C 249.075,39.132 241.92,37.32 232.23,37.32 h -16.134 z"
       id="path13"
       style="fill:#ffffff;fill-opacity:1"
       inkscape:connector-curvature="0" />
    <path
       d="m 371.109,79.791 c 0,15.468 -3.864,27.702 -11.601,36.702 -7.737,9.006 -18.402,13.506 -32.001,13.506 -13.56,0 -24.204,-4.5 -31.938,-13.506 -7.734,-9 -11.601,-21.276 -11.601,-36.837 0,-15.51 3.9,-27.723 11.7,-36.636 7.803,-8.913 18.459,-13.368 31.971,-13.368 13.605,0 24.246,4.479 31.938,13.434 7.686,8.958 11.532,21.192 11.532,36.705 z m -79.74,0 c 0,13.956 3.111,24.744 9.333,32.37 6.222,7.623 15.159,11.436 26.805,11.436 11.733,0 20.703,-3.777 26.901,-11.337 6.198,-7.557 9.3,-18.375 9.3,-32.469 0,-14.046 -3.102,-24.813 -9.3,-32.301 -6.198,-7.491 -15.123,-11.235 -26.769,-11.235 -11.601,0 -20.547,3.777 -26.835,11.334 -6.291,7.554 -9.435,18.291 -9.435,32.202 z"
       id="path15"
       style="fill:#ffffff;fill-opacity:1"
       inkscape:connector-curvature="0" />
    <path
       d="m 400.314,86.19 v 42.471 H 393.51 V 31.185 h 23.202 c 12.093,0 21.027,2.232 26.808,6.699 5.778,4.467 8.667,11.193 8.667,20.169 0,6.537 -1.722,12.048 -5.166,16.536 -3.447,4.491 -8.676,7.713 -15.702,9.669 l 26.469,44.406 h -8.133 L 424.515,86.19 Z m 0,-5.868 h 18.6 c 8.223,0 14.601,-1.83 19.137,-5.499 4.533,-3.666 6.804,-9.075 6.804,-16.236 0,-7.422 -2.226,-12.819 -6.669,-16.2 -4.446,-3.378 -11.694,-5.067 -21.741,-5.067 h -16.131 z"
       id="path17"
       style="fill:#ffffff;fill-opacity:1"
       inkscape:connector-curvature="0" />
    <path
       d="m 500.055,128.661 h -6.864 V 37.587 h -31.674 v -6.402 h 70.209 v 6.402 h -31.671 z"
       id="path19"
       style="fill:#ffffff;fill-opacity:1"
       inkscape:connector-curvature="0" />
    <path
       d="m 600,103.524 c 0,8.139 -2.991,14.583 -8.97,19.338 -5.979,4.755 -13.923,7.134 -23.835,7.134 -11.913,0 -21.048,-1.314 -27.405,-3.939 v -6.801 c 7.026,2.979 15.978,4.47 26.868,4.47 8.004,0 14.349,-1.833 19.038,-5.496 4.689,-3.672 7.032,-8.484 7.032,-14.439 0,-3.687 -0.777,-6.744 -2.337,-9.168 -1.554,-2.421 -4.086,-4.632 -7.596,-6.633 -3.516,-2.001 -8.667,-4.158 -15.471,-6.468 -9.954,-3.42 -16.833,-7.122 -20.634,-11.097 -3.804,-3.981 -5.703,-9.282 -5.703,-15.903 0,-7.29 2.856,-13.233 8.571,-17.835 5.712,-4.602 13.053,-6.9 22.032,-6.9 9.156,0 17.757,1.734 25.803,5.199 l -2.466,5.868 c -8.091,-3.378 -15.825,-5.07 -23.202,-5.07 -7.2,0 -12.933,1.668 -17.199,5.004 -4.272,3.333 -6.402,7.869 -6.402,13.602 0,3.6 0.651,6.558 1.962,8.868 1.308,2.313 3.459,4.389 6.432,6.237 2.979,1.842 8.091,4.056 15.336,6.633 7.599,2.625 13.311,5.166 17.133,7.635 3.816,2.466 6.609,5.268 8.364,8.4 1.77,3.129 2.649,6.918 2.649,11.361 z"
       id="path21"
       style="fill:#ffffff;fill-opacity:1"
       inkscape:connector-curvature="0" />
  </g>
</svg>

<?xml version="1.0" encoding="utf-8"?>
<svg version="1.1" viewBox="0 0 264 70" xmlns="http://www.w3.org/2000/svg">
  <g transform="matrix(0.44, 0, 0, 0.438465, 0, 0)">
    <path d="M 84.453 80.481 C 93.252 70.194 106.32 63.669 120.918 63.669 C 123.846 63.669 126.711 63.948 129.495 64.446 C 131.373 59.313 132.396 53.769 132.396 47.982 C 132.396 21.483 110.907 0 84.408 0 C 57.903 0 36.42 21.483 36.42 47.985 C 36.42 53.778 37.452 59.328 39.333 64.464 C 42.141 63.954 45.03 63.669 47.988 63.669 C 62.586 63.672 75.651 70.197 84.453 80.481 Z M 129.495 64.449 C 123.735 80.217 109.941 92.106 93.072 95.187 C 94.947 100.323 95.976 105.876 95.976 111.657 C 95.976 123.564 91.632 134.448 84.453 142.833 C 93.255 153.12 106.32 159.648 120.918 159.648 C 147.423 159.648 168.906 138.162 168.906 111.657 C 168.906 88.083 151.905 68.496 129.495 64.449 Z M 75.834 95.196 C 58.929 92.145 45.105 80.244 39.333 64.467 C 16.965 68.541 0 88.113 0 111.657 C 0 138.162 21.486 159.648 47.988 159.648 C 62.586 159.648 75.651 153.12 84.453 142.836 C 77.277 134.448 72.933 123.564 72.933 111.66 C 72.933 105.876 73.959 100.329 75.834 95.196 Z M 75.834 95.196 C 78.618 95.7 81.48 95.97 84.408 95.97 C 87.369 95.97 90.261 95.697 93.072 95.184 C 91.089 89.751 88.14 84.792 84.453 80.478 C 80.763 84.792 77.817 89.766 75.834 95.196 Z" id="path9" style="fill-opacity: 1; fill: rgb(255, 255, 255);"/>
    <path d="M 267.966 59.187 C 267.966 68.61 264.765 75.834 258.366 80.859 C 251.964 85.881 242.898 88.392 231.162 88.392 L 216.096 88.392 L 216.096 128.661 L 209.295 128.661 L 209.295 31.185 L 233.163 31.185 C 256.365 31.185 267.966 40.518 267.966 59.187 Z M 216.096 82.524 L 229.497 82.524 C 240.474 82.524 248.409 80.712 253.299 77.088 C 258.186 73.467 260.631 67.587 260.631 59.454 C 260.631 51.942 258.321 46.377 253.698 42.753 C 249.075 39.132 241.92 37.32 232.23 37.32 L 216.096 37.32 L 216.096 82.524 L 216.096 82.524 Z" id="path13" style="fill-opacity: 1; fill: rgb(255, 255, 255);"/>
    <path d="M 371.109 79.791 C 371.109 95.259 367.245 107.493 359.508 116.493 C 351.771 125.499 341.106 129.999 327.507 129.999 C 313.947 129.999 303.303 125.499 295.569 116.493 C 287.835 107.493 283.968 95.217 283.968 79.656 C 283.968 64.146 287.868 51.933 295.668 43.02 C 303.471 34.107 314.127 29.652 327.639 29.652 C 341.244 29.652 351.885 34.131 359.577 43.086 C 367.263 52.044 371.109 64.278 371.109 79.791 Z M 291.369 79.791 C 291.369 93.747 294.48 104.535 300.702 112.161 C 306.924 119.784 315.861 123.597 327.507 123.597 C 339.24 123.597 348.21 119.82 354.408 112.26 C 360.606 104.703 363.708 93.885 363.708 79.791 C 363.708 65.745 360.606 54.978 354.408 47.49 C 348.21 39.999 339.285 36.255 327.639 36.255 C 316.038 36.255 307.092 40.032 300.804 47.589 C 294.513 55.143 291.369 65.88 291.369 79.791 Z" id="path15" style="fill-opacity: 1; fill: rgb(255, 255, 255);"/>
    <path d="M 400.314 86.19 L 400.314 128.661 L 393.51 128.661 L 393.51 31.185 L 416.712 31.185 C 428.805 31.185 437.739 33.417 443.52 37.884 C 449.298 42.351 452.187 49.077 452.187 58.053 C 452.187 64.59 450.465 70.101 447.021 74.589 C 443.574 79.08 438.345 82.302 431.319 84.258 L 457.788 128.664 L 449.655 128.664 L 424.515 86.19 L 400.314 86.19 L 400.314 86.19 Z M 400.314 80.322 L 418.914 80.322 C 427.137 80.322 433.515 78.492 438.051 74.823 C 442.584 71.157 444.855 65.748 444.855 58.587 C 444.855 51.165 442.629 45.768 438.186 42.387 C 433.74 39.009 426.492 37.32 416.445 37.32 L 400.314 37.32 L 400.314 80.322 Z" id="path17" style="fill-opacity: 1; fill: rgb(255, 255, 255);"/>
    <path d="M 500.055 128.661 L 493.191 128.661 L 493.191 37.587 L 461.517 37.587 L 461.517 31.185 L 531.726 31.185 L 531.726 37.587 L 500.055 37.587 L 500.055 128.661 L 500.055 128.661 Z" id="path19" style="fill-opacity: 1; fill: rgb(255, 255, 255);"/>
    <path d="M 600 103.524 C 600 111.663 597.009 118.107 591.03 122.862 C 585.051 127.617 577.107 129.996 567.195 129.996 C 555.282 129.996 546.147 128.682 539.79 126.057 L 539.79 119.256 C 546.816 122.235 555.768 123.726 566.658 123.726 C 574.662 123.726 581.007 121.893 585.696 118.23 C 590.385 114.558 592.728 109.746 592.728 103.791 C 592.728 100.104 591.951 97.047 590.391 94.623 C 588.837 92.202 586.305 89.991 582.795 87.99 C 579.279 85.989 574.128 83.832 567.324 81.522 C 557.37 78.102 550.491 74.4 546.69 70.425 C 542.886 66.444 540.987 61.143 540.987 54.522 C 540.987 47.232 543.843 41.289 549.558 36.687 C 555.27 32.085 562.611 29.787 571.59 29.787 C 580.746 29.787 589.347 31.521 597.393 34.986 L 594.927 40.854 C 586.836 37.476 579.102 35.784 571.725 35.784 C 564.525 35.784 558.792 37.452 554.526 40.788 C 550.254 44.121 548.124 48.657 548.124 54.39 C 548.124 57.99 548.775 60.948 550.086 63.258 C 551.394 65.571 553.545 67.647 556.518 69.495 C 559.497 71.337 564.609 73.551 571.854 76.128 C 579.453 78.753 585.165 81.294 588.987 83.763 C 592.803 86.229 595.596 89.031 597.351 92.163 C 599.121 95.292 600 99.081 600 103.524 Z" id="path21" style="fill-opacity: 1; fill: rgb(255, 255, 255);"/>
  </g>
</svg>
